package/converter/svg/thin/square-chevron-down.svg

<svg xmlns="http://www.w3.org/2000/svg" viewBox="0 0 448 512"><!-- Font Awesome Pro 6.0.0-alpha2 by @fontawesome - https://fontawesome.com License - https://fontawesome.com/license (Commercial License) --><path d="M330.156 202.656L224 316.391L117.844 202.656C116.281 200.969 114.125 200.109 112 200.109C110.031 200.109 108.094 200.828 106.531 202.266C103.312 205.281 103.125 210.344 106.156 213.562L218.156 333.562C221.156 336.812 226.844 336.812 229.844 333.562L341.844 213.562C344.875 210.344 344.688 205.281 341.469 202.266C338.219 199.266 333.188 199.406 330.156 202.656ZM384 32H64C28.656 32 0 60.654 0 96V416C0 451.346 28.656 480 64 480H384C419.348 480 448 451.346 448 416V96C448 60.654 419.348 32 384 32ZM432 416C432 442.467 410.469 464 384 464H64C37.531 464 16 442.467 16 416V96C16 69.533 37.531 48 64 48H384C410.469 48 432 69.533 432 96V416Z"/></svg>

<svg xmlns="http://www.w3.org/2000/svg" viewBox="0 0 448 512"><!--! Font Awesome Pro 6.6.0 by @fontawesome - https://fontawesome.com License - https://fontawesome.com/license (Commercial License) Copyright 2024 Fonticons, Inc. --><path d="M64 464c-26.5 0-48-21.5-48-48L16 96c0-26.5 21.5-48 48-48l320 0c26.5 0 48 21.5 48 48l0 320c0 26.5-21.5 48-48 48L64 464zM0 416c0 35.3 28.7 64 64 64l320 0c35.3 0 64-28.7 64-64l0-320c0-35.3-28.7-64-64-64L64 32C28.7 32 0 60.7 0 96L0 416zm229.7-74.3l120-120c3.1-3.1 3.1-8.2 0-11.3s-8.2-3.1-11.3 0L224 324.7 109.7 210.3c-3.1-3.1-8.2-3.1-11.3 0s-3.1 8.2 0 11.3l120 120c3.1 3.1 8.2 3.1 11.3 0z"/></svg>
